X:342
T: EI SCHAEFER WO EILEST DU HIN
N: E1494
O: Europa, Mitteleuropa, Deutschland, Ober - Hessen
R: Staende - Lied, Hirten -,  Schaefer - Lied, Liebe
M: 3/4
L: 1/8
K: G
D2 | G3FGB | A3GAd | B2z2
GA | B3ABd | c2B2A2 | G2z2
GA | BBBBBd | d2cBcB |
AAAAAc | B3ABA |
G3FGB | A3GAd | B2z2
GA | B3ABd | c2B2A2 | G2z2

@@@ Tune index: 5026
